!!!!SEGMENT: pl-sa--230-a-vi-34--002_luna-georgius--litania-kirie.krn
!!!cenid: 17xx:496
!!!COM: Luna, Georgius
!!!COM-rismid: pe41010079
!!!CDT:
!!!CNT:
!!!OPR: Litania
!!!OTL: Kirie
!!!OMV: 002
!!!PDT:
!!!AGN: Sacred; Mass
!!!SMS-siglum: PL-SA
!!!SMS-shelfmark: 230/A VI 34
!!!SMS-shelfwork: 001-002 M
!!!SMS-variant: Violino 1mo: PL-SA 230/A VI 34:7
!!!SMS-altvar: Violino 1mo: PL-SA 230/A VI 34:29
!!!NIFC-rismid: 1001070084
!!!URL-scan: http://bc.bdsandomierz.pl/dlibra/publication/1606/edition/1574/content
!!!ONB-nifc: UWAGA: części Litanii: Simphonia, Kirie, Pater de caelis, Sancta Maria, Mater Christi, Mater amabilis, Virgo prudentissima, Speculum, Rosa mistica, Salus infirmorum, Regina angelorum, Agnus Dei
!!!key:
**kern	**kern	**kern	**kern	**text	**kern	**text	**kern	**kern
*part7	*part6	*part5	*part4	*part4	*part3	*part3	*part2	*part1
*staff7	*staff6	*staff5	*staff4	*staff4	*staff3	*staff3	*staff2	*staff1
*Iempty	*Ivioln	*Ivioln	*Itenor	*	*Ivox	*	*Iempty	*Iempty
*I"Fundamenti	*I"Violino 2do.	*I"Violino 1mo.	*I"Tenore	*	*I"Canto	*	*I"Clarino 2do ex C	*I"Clarino 1mo ex C
*I'bc	*I'vl 2	*I'vl 1	*I'T	*	*I'S	*	*I'clno 2 ex C	*I'clno 1 ex C
*clefF4	*clefG2	*clefG2	*clefC4	*	*clefC1	*	*clefG2	*clefG2
*k[]	*k[]	*k[]	*k[]	*	*k[]	*	*k[]	*k[]
*C:	*C:	*C:	*C:	*	*C:	*	*C:	*C:
*M4/4	*M4/4	*M4/4	*M4/4	*	*M4/4	*	*M4/4	*M4/4
*met(c)	*met(c)	*met(c)	*met(c)	*	*met(c)	*	*met(c)	*met(c)
=1	=1	=1	=1	=1	=1	=1	=1	=1
!	!	!LO:SIC:o=:v:klucz zaklejony wzmocnieniem strony	!	!	!	!	!	!
!	!	!	!LO:SIC:l:s=Ky	!	!	!	!	!
!LO:SIC:o:s=:v:metrum z kropką	!LO:SIC:o:s=:v:metrum z kropką	!LO:SIC:o:s=:v:metrum z kropką	!	!	!LO:SIC:l:s=Ky	!	!LO:SIC:o:s=:v:metrum z kropką	!LO:SIC:o:s=:v:metrum z kropką
!LO:TX:rj:a:t=ada(gio)	!LO:TX:rj:b:t=Kirie	!LO:TX:rj:b:t=Kirie	!LO:SIC:o:s=:v:metrum z kropką	!	!	!	!LO:TX:rj:b:t=Kirie	!LO:TX:rj:b:t=Kirie
!LO:TX:rj:b:t=Kirieeleison	!LO:TX:a:t=adagio	!LO:TX:rj:a:t=adagio	!LO:TX:a:t=adagio	!	!LO:SIC:o:s=:v:metrum z kropką	!	!LO:TX:a:t=adagio	!LO:TX:rj:a:t=adagio
4C/	4ee\	4gg\	4c\	Ki-	4ee\	Ki-	4cc\	4ee\
4C/	4ee\	4gg\	4c\	-ri-	4ee\	-ri-	4cc\	4ee\
4C/	4ee\	4gg\	4c\	-e	4ee\	-e	4cc\	4ee\
4c\	4ee\	4gg\	4c\	e-	4ee\	e-	4r	4r
=2	=2	=2	=2	=2	=2	=2	=2	=2
*	*2\right	*	*2\right	*	*2\right	*	*	*
4c\	2ee\	4aa\	2c\	-lei-	2ee\	-lei-	4r	4r
4F#X\	.	4ccc\	.	.	.	.	4cc\	4ee\
!	!	!	!	!	!	!	!	!LO:SIC:o=:v:interpretacja znaku niepewna; dotyczy wszystkich mordentów
*	*	*2\right	*	*	*	*	*	*2\right
2G\	2dd\	2bb\	2B\	-son	2dd\	-son	2g/	2ddW\
!	!LO:LB:g=original	!	!	!	!	!	!	!
=3	=3	=3	=3	=3	=3	=3	=3	=3
*	*	*	*	*ij	*	*ij	*	*
4E\	4dd\	4gg#X\	4B\	Ky-	4dd\	Ky-	4e/	4e/
4E\	4dd\	4gg#\	4B\	-ri-	4dd\	-ri-	4e/	4e/
4E\	4dd\	4gg#\	4B\	-e	4dd\	-e	4e/	4e/
4E\	4dd\	4gg#\	4B\	e-	4dd\	e-	4r	4r
!	!	!	!	!	!	!	!LO:LB:g=original	!
=4	=4	=4	=4	=4	=4	=4	=4	=4
4G#X\	4cc\	4bb\	2B\	-lei-	2dd\	-lei-	4r	4r
4E\	4b\	4dd\	.	.	.	.	8e/L	8e/L
.	.	.	.	.	.	.	8e/J	8e/J
*2\right	*	*	*	*	*	*	*	*
2A\	2a/	2cc\	2A\	-son	2cc\	-son	2e/	2e/
*	*	*	*	*Xij	*	*Xij	*	*
!LO:LB:g=original	!	!	!	!	!	!	!	!
=5	=5	=5	=5	=5	=5	=5	=5	=5
!	!	!	!	!	!	!	!LO:TX:a:t=2	!LO:TX:a:t=2
!	!	!	!	!	!	!	!LO:SIC:o:s=:v:2 z łukiem	!LO:SIC:o:s=:v:2 z łukiem
4A\	4cc#X\	4ee\	2e\	Chri-	2cc#X\	Chri-	0r	0r
4Gn\	4cc#\	4ee\	.	.	.	.	.	.
4F\	4dd\	4ff\	4f\	-ste	4dd\	-ste	.	.
4E\	8cc#\L	8ee\L	8e\L	e-	8ee\L	e-	.	.
.	8dd\J	8ff\J	8d\J	.	8ff\J	.	.	.
=6	=6	=6	=6	=6	=6	=6	=6	=6
4A\	2cc#X\	2ee\	2c#X\	-lei-	2ee\	-lei-	.	.
4AA/	.	.	.	.	.	.	.	.
2D/	2dd\	2ff\	2d\	-son	2ff\	-son	.	.
=7	=7	=7	=7	=7	=7	=7	=7	=7
!	!	!	!LO:SIC:l:s=Ky	!	!LO:SIC:l:s=Ky	!	!	!
4G\	4b\	4dd\	4d\	Ki-	4b\	Ki-	4g/	4dd\
4F\	4b\	4dd\	4d\	-ri-	4b\	-ri-	4g/	4dd\
4E\	4ccn\	4ee\	4e\	-e	4ccn\	-e	4cc\	4ee\
!	!	!	!LO:SIC:o:s=:v:znak podziału taktu	!	!	!	!	!
!	!	!	!LO:LB:g=original	!	!	!	!	!
4C/	8b\L	8dd\L	8dn\L	e-	8dd\L	e-	8g\L	8dd\L
.	8cc\J	8ee\J	8cn\J	.	8ee\J	.	8cc\J	8ee\J
!	!	!	!	!	!LO:LB:g=original	!	!	!LO:LB:g=original
=8	=8	=8	=8	=8	=8	=8	=8	=8
4G\	2b\	2dd\	2B\	-lei-	2dd\	-lei-	2g/	2dd\
4GG/	.	.	.	.	.	.	.	.
*	*	*	*	*	*	*	*2\right	*
2C/	2cc\	2ee\	2c\	-son	2ee\	-son	2cc\	2ee\
=9	=9	=9	=9	=9	=9	=9	=9	=9
[1C/	2ee\	2gg\	2e\	Chri-	2gg\	Chri-	4cc\	4cc\
.	.	.	.	.	.	.	4cc\	4cc\
.	2g/	2b-X/	2G/	-ste	2b-X\	-ste	4cc\	4cc\
.	.	.	.	.	.	.	4cc\	4cc\
=10	=10	=10	=10	=10	=10	=10	=10	=10
!	!	!LO:SIC:s=4b-	!	!	!LO:SIC:s=4b-	!	!	!
2C/]	4g/	4b/	4G/	au-	4b\	au-	4cc\	4cc\
!	!	!LO:SIC:s=4b-	!	!	!LO:SIC:s=4b-	!	!	!
.	4g/	4b/	4G/	-di	4b\	-di	4cc\	4cc\
2F\	2f/	2a/	2F/	nos	2a\	nos	2cc\	2ccM\
=11	=11	=11	=11	=11	=11	=11	=11	=11
*	*	*	*	*ij	*	*ij	*	*
[1D\	2ff#X\	2aa\	2f#X\	Chri-	2aa\	Chri-	4dd\	4dd\
.	.	.	.	.	.	.	4dd\	4dd\
.	2a/	2cc\	4A/	-ste	4cc\	-ste	4dd\	4dd\
*	*	*	*	*Xij	*	*Xij	*	*
.	.	.	4A/	ex-	4cc\	ex-	4dd\	4dd\
!	!	!LO:LB:g=original	!	!	!	!	!	!
=12	=12	=12	=12	=12	=12	=12	=12	=12
2D\]	4a/	4cc\	4A/	-au-	4cc\	-au-	4dd\	4dd\
.	4a/	4cc\	4A/	-di	4cc\	-di	4dd\	4dd\
2G\	2g/	2b/	2G/	nos	2bn\	nos	2g/	2ddM\
!	!LO:LB:g=original	!	!	!	!	!	!	!
=13	=13	=13	=13	=13	=13	=13	=13	=13
2F#X\	2a/	2ee-X\	2c\	Chri-	2ee-X\	Chri-	2r	2r
4G\	4b/	4ee-\	8B\L	-ste	8dd\L	-ste	4g/	4dd\
.	.	.	8d\J	.	8b\J	.	.	.
8E\L	8cc\L	8cc\L	8e\L	ex-	8cc\L	ex-	8cc\L	8ee\L
8Fn\J	8dd\J	8gg\J	8d\J	.	8ff\J	.	8dd\J	8ff\J
=14	=14	=14	=14	=14	=14	=14	=14	=14
4G\	4cc\	4ee\	4c\	-au-	4een\	-au-	4cc\	4ee\
4GG/	4b\	4dd\	4B\	-di-	4dd\	.	4g/	4dd\
4C/	4cc\	4ee\	4c\	.	4cc\	.	4cc\	4ee\
4C/	4ee\	4ccc\	4c\	.	4ee\	.	4cc\	4ee\
=15	=15	=15	=15	=15	=15	=15	=15	=15
4G\	4ee\	4ccc\	4c\	.	4ee\	.	4cc\	4ee\
!	!	!	!	!	!LO:SIC:o:s=:v:brak sylaby "di"	!	!	!
4GG/	4dd\	4bb\	4B\	.	4dd\	.	4g/	4dd\
2C/	2ee\	2ccc\	2c\	-nos	4ee\	-nos	2cc\	2ee\
.	.	.	.	.	4r	.	.	.
==	==	==	==	==	==	==	==	==
*-	*-	*-	*-	*-	*-	*-	*-	*-
!!!system-decoration: [(s1,s2)][(s3,s4)][(s5,s6)][(s7)]
!!!EED: Leszek Kubiak
!!!EST: 2020-10-22
!!!AIN: 3 empty 1 tenor 2 violn 1 vox
!!!ENC: Kamil Watkowski
!!!END: 2020-05-21
